X: 293
M: 6/8
L: 1/8
K: Am
c2A AGA | E2A ABc | B2G GAG | dBG GAB |\
cdc BcB | ABA g3  | edc BAG | EAA A2 :|
E |\
cdc BcB | ABA g2g | edc BAG | EAA A2 |]


